images/svg/teeth.svg

<svg width="18" height="18" viewBox="0 0 18 18" fill="none" xmlns="http://www.w3.org/2000/svg">
<path d="M12.5413 1.58338C11.5278 1.58338 10.963 1.8254 10.4731 2.037L10.4655 2.04029C10.0509 2.21937 9.70759 2.36767 8.99967 2.36767C8.29162 2.36767 7.94836 2.21937 7.53394 2.04033L7.52627 2.03702C7.0364 1.82539 6.47176 1.58337 5.45801 1.58337C3.3613 1.58337 1.58301 3.19355 1.58301 5.27456C1.58301 7.1246 1.93714 9.78659 2.5136 11.9936C2.80119 13.0947 3.15509 14.1259 3.57108 14.8985C3.77831 15.2834 4.02024 15.6408 4.30605 15.911C4.59218 16.1815 4.98025 16.4167 5.45801 16.4167C6.29677 16.4167 6.79034 15.8116 7.07178 15.2996C7.35007 14.7934 7.55378 14.1423 7.7324 13.5714L7.74645 13.5265C7.96261 12.836 8.15257 12.242 8.40235 11.813C8.64478 11.3967 8.8325 11.3186 8.99967 11.3186C9.16683 11.3186 9.35451 11.3967 9.59689 11.813C9.84664 12.2419 10.0366 12.8358 10.2527 13.5263C10.2574 13.5412 10.2621 13.5562 10.2668 13.5712C10.4454 14.1421 10.6491 14.7932 10.9274 15.2996C11.2089 15.8117 11.7025 16.4167 12.5413 16.4167C13.0191 16.4167 13.4072 16.1815 13.6933 15.911C13.9792 15.6408 14.2211 15.2834 14.4283 14.8985C14.8443 14.126 15.1982 13.0947 15.4858 11.9936C16.0623 9.78658 16.4163 7.12459 16.4163 5.27456C16.4163 3.19353 14.6379 1.58338 12.5413 1.58338Z" stroke="#115DA3" stroke-width="1.5"/>
</svg>

<svg width="18" height="18" fill="none" xmlns="http://www.w3.org/2000/svg"><path d="M12.541 1.583c-1.013 0-1.578.242-2.068.454l-.008.003c-.414.18-.757.328-1.465.328-.708 0-1.052-.149-1.466-.328l-.008-.003c-.49-.212-1.054-.454-2.068-.454-2.097 0-3.875 1.61-3.875 3.692 0 1.85.354 4.512.93 6.719.288 1.1.642 2.132 1.058 2.905.207.384.45.742.735 1.012.286.27.674.506 1.152.506.839 0 1.332-.605 1.614-1.117.278-.507.482-1.158.66-1.729l.014-.044c.217-.691.407-1.285.656-1.714.243-.416.43-.494.598-.494.167 0 .355.078.597.494.25.429.44 1.023.656 1.713l.014.045c.178.571.382 1.222.66 1.729.282.512.776 1.117 1.614 1.117.478 0 .866-.236 1.152-.506.286-.27.528-.628.735-1.012.416-.773.77-1.804 1.058-2.905.576-2.207.93-4.87.93-6.72 0-2.08-1.778-3.69-3.875-3.69z" stroke="#115DA3" stroke-width="1.5"/></svg>
